X: 48
T:Highland Laddie. BF11.48
M:4/4
Q:180
C:Browne A hand
S:MS11,c1800.,Browne Coll.,Lakes
R:Reel
O:England
A:Lakes
Z:vmp.Chris Partington
K:D
f|eAcA {cd}e2c2|fBBc fBBf|ecace2c2|(A/B/c/d/) eB cAA:|!
|:a|fefaf2ec|fBBc fBBf|eacge2c2|(A/B/c/d/) ec cAA:|]
